kora-light/actions/scalable/office-chart-area-percentage.svg

<svg xmlns="http://www.w3.org/2000/svg" width="16" height="16" viewBox="0 0 16 16">
 <defs>
  <style id="current-color-scheme" type="text/css">
   .ColorScheme-Text { color:#444444; } .ColorScheme-Highlight { color:#4285f4; }
  </style>
 </defs>
 <path style="fill:currentColor" class="ColorScheme-Text" d="M 2 2 L 2 14 L 14 14 L 14 13 L 3 13 L 3 2 L 2 2 z M 4 2 L 4 3 L 5 3 L 5 6 L 6 6 L 6 2 L 5 2 L 4 2 z M 8.5 2 C 7.669 2 7 2.669 7 3.5 L 7 4.5 C 7 5.331 7.669 6 8.5 6 C 9.331 6 10 5.331 10 4.5 L 10 3.5 C 10 2.669 9.331 2 8.5 2 z M 12.5 2 C 11.669 2 11 2.669 11 3.5 L 11 4.5 C 11 5.331 11.669 6 12.5 6 C 13.331 6 14 5.331 14 4.5 L 14 3.5 C 14 2.669 13.331 2 12.5 2 z M 8.5 3 C 8.777 3 9 3.223 9 3.5 L 9 4.5 C 9 4.777 8.777 5 8.5 5 C 8.223 5 8 4.777 8 4.5 L 8 3.5 C 8 3.223 8.223 3 8.5 3 z M 12.5 3 C 12.777 3 13 3.223 13 3.5 L 13 4.5 C 13 4.777 12.777 5 12.5 5 C 12.223 5 12 4.777 12 4.5 L 12 3.5 C 12 3.223 12.223 3 12.5 3 z M 8.5898438 7 L 12.125 10.535156 L 12.126953 10.533203 L 12.128906 10.535156 L 14.003906 8.6621094 L 14.003906 7.2460938 L 12.126953 9.1230469 L 10.003906 7 L 8.5898438 7 z M 5.5996094 9 L 3.5996094 11 L 3.0078125 11 L 3.0078125 12 L 4.0058594 12 L 4.0058594 11.992188 L 4.0136719 12 L 6.0136719 10 L 7.6054688 10 L 9.6054688 12 L 14.007812 12 L 14.007812 11 L 10.019531 11 L 8.0195312 9 L 5.5996094 9 z"/>
</svg>

<svg xmlns="http://www.w3.org/2000/svg" style="fill-rule:evenodd;clip-rule:evenodd;stroke-linejoin:round;stroke-miterlimit:2" width="100%" height="100%" version="1.1" viewBox="0 0 16 16" xml:space="preserve">
 <defs>
  <style id="current-color-scheme" type="text/css">
   .ColorScheme-Text { color:#444444; } .ColorScheme-Highlight { color:#4285f4; } .ColorScheme-NeutralText { color:#ff9800; } .ColorScheme-PositiveText { color:#4caf50; } .ColorScheme-NegativeText { color:#f44336; }
  </style>
 </defs>
 <path style="fill:currentColor;" class="ColorScheme-Text" d="M4,2l0,1l1,0l0,3l1,0l0,-4l-2,0Zm4.5,0c-0.831,0 -1.5,0.669 -1.5,1.5l0,1c0,0.831 0.669,1.5 1.5,1.5c0.831,0 1.5,-0.669 1.5,-1.5l0,-1c0,-0.831 -0.669,-1.5 -1.5,-1.5Zm4,0c-0.831,0 -1.5,0.669 -1.5,1.5l0,1c0,0.831 0.669,1.5 1.5,1.5c0.831,0 1.5,-0.669 1.5,-1.5l0,-1c0,-0.831 -0.669,-1.5 -1.5,-1.5Zm-4,1c0.277,0 0.5,0.223 0.5,0.5l0,1c0,0.277 -0.223,0.5 -0.5,0.5c-0.277,0 -0.5,-0.223 -0.5,-0.5l0,-1c0,-0.277 0.223,-0.5 0.5,-0.5Zm4,0c0.277,0 0.5,0.223 0.5,0.5l0,1c0,0.277 -0.223,0.5 -0.5,0.5c-0.277,0 -0.5,-0.223 -0.5,-0.5l0,-1c0,-0.277 0.223,-0.5 0.5,-0.5Zm-3.91,4l3.535,3.535l0.002,-0.002l0.002,0.002l1.875,-1.873l-0,-1.416l-1.877,1.877l-2.123,-2.123l-1.414,-0Zm-2.99,2l-2,2l-0.592,0l-0,1l0.998,0l-0,-0.008l0.008,0.008l2,-2l1.591,0l2,2l4.403,0l-0,-1l-3.988,0l-2,-2l-2.42,0Z"/>
 <path style="fill:currentColor;fill-opacity:0.3;" class="ColorScheme-Text" d="M2,2l0,12l12,0l0,-1l-11,0l0,-11l-1,0Z"/>
</svg>
